X: 1
T: String Quartet in B\b Major opus 50 no 1 mvt 2
C: Franz Joseph Haydn
%%abc-version 2.0
%%abcx-abcm2ps-target-version 5.9.1 (29 Sep 2008)
%%abc-creator hum2abc beta
%%abcx-conversion-date 2021/02/14 14:38:36
%%abc-copyright Copyright (c) 1994, 2000 Center for Computer Assisted Research in the Humanities
%%abc-edited-by Frances Bennion
%%abcx-initial-encoding-date 1997/04/15
%%gracespace 0 6 6
%%humdrum-veritas 1455542321
%%humdrum-veritas-data 3098544831
%%linebreak <none>
%%barnumbers 0
L: 1/16
M: 6/8
N: Derived from op50n1-02.krn
Q: "Adagio non lento"
%%staves [1 2 3 4]
V: 1
V: 2
V: 3 clef=alto
V: 4 clef=bass
K: Eb
[V:1]z8 z2B,2 [I:setbarnb1]|
[V:2]z8 z2z2 |
[V:3]z8 z2z2 |
[V:4]z8 z2z2 |
[V:1]E4G2 B4=A/B/c/B/ |
[V:2][E4G,4][G2B,2] [G4B,4][G2B,2] |
[V:3]B,4G,2 E,4E2 |
[V:4]E,4E,2 E,4E,2 |
[V:1]B2D2D2 D2z2B,2 |
[V:2][A4B,4][A2B,2] [A4B,4]z2 |
[V:3]D4F2 A,4z2 |
[V:4]F,4F,2 F,4z2 |
[V:1]F4A2 c4B/A/G/F/ |
[V:2][B,4A4][B,2A2] [A4B,4][A2B,2] |
[V:3]F4F2 F4F2 |
[V:4]D,4D,2 D,4D,2 |
[V:1]G2B2B2 B2z2e2 |
[V:2][G4B,4][B,2G2] [G4B,4]z2 |
[V:3]E4B,2 G,2z2B,2 |
[V:4]E,4E,2 E,4G,2 |
[V:1]d2B2e2 A2F2G2 |
[V:2]B,12 |
[V:3]F2D2E2 F2A,2G,2 |
[V:4]A,4G,2 D,4E,2 |
[V:1]c2A2F2 E2D2f2 |
[V:2]C6 B,4z2 |
[V:3]F,4C2 G,2F,2z2 |
[V:4]A,,4=A,,2 B,,4z2 |
[V:1]A4AG/A/ G2E2g2 |
[V:2]D2E2F2 G2z4 |
[V:3]B,2C2D2 E2z4 |
[V:4]z12 |
[V:1]e2c2=A2 B2z2e2- |
[V:2]G2E2C2 B,2z2B2 |
[V:3]E2G2E2 F2z2G2 |
[V:4]C,2E,2F,2 D,2B,,2z2 |
[V:1]e2d2c4 B2A2- |
[V:2]A4G2 F4E2 |
[V:3]F4E2 D4C2 |
[V:4]z8 z2C,2 |
[V:1]A2G2F2 B2z2e2 |
[V:2]D4D2 E2z4 |
[V:3]B,4B,2 B,2z4 |
[V:4]B,,4A,,2 G,,2z4 |
[V:1]F2z2c2 E2z2_G2 |
[V:2]E4z2 _G4z2 |
[V:3]C4z2 C4z2 |
[V:4]A,,4z2 =A,,4z2 |
[V:1]B,2C2D2 E2z4 |
[V:2]A,4>G,4 z2B,2 |
[V:3]F,4>E,4 z4 |
[V:4]B,,4>E,,4 z4 |
[V:1]z12 |
[V:2]E4G2 B4=A/B/c/B/ |
[V:3][B,4G4][G2B,2] [B,4G4][G2B,2] |
[V:4]E,4E,2 E,4E,2 |
[V:1]z2z2=a/b/c'/b/ b2d2d2 |
[V:2]B2D2D2 D2z2B,2 |
[V:3][A4B,4][A2B,2] [A4B,4]z2 |
[V:4]F,4F,2 F,4z2 |
[V:1]d4z2 D/E/F/G/A/B/c/d/e/f/g/a/ |
[V:2]F4A2 c4B/A/G/F/ |
[V:3][A4B,4][A2B,2] [A4B,4][B,2F2] |
[V:4]D,4D,2 D,4D,2 |
[V:1]g4z6 =a/b/c'/b/ |
[V:2]G2B2B2 B2z2e2 |
[V:3][B,4G4][B,2G2] [G4B,4]B,2 |
[V:4]E,4E,2 E,4G,2 |
[V:1]b2z2=a/b/c'/b/ b2z2a/b/c'/b/ |
[V:2]d2B2e2 A2F2G2 |
[V:3]F2D2B,2 F2A2G2 |
[V:4]A,4G,2 D,4E,2 |
[V:1]=b/c'/b/c'/_b/a/g/f/=e/f/a/f/ _e2d2z2 |
[V:2]=B/c/B/c/_B/A/G/F/=E/F/A/F/ _E2D2f2 |
[V:3]F4CA, G,2F,2z2 |
[V:4]A,,4A,,2 B,,4z2 |
[V:1]B,/C/D/E/F/G/A/B/c/d/e/f/ g2z4 |
[V:2]A4AG/A/ G2E2g2 |
[V:3][F4B,4][F2B,2] [G4B,4]z2 |
[V:4]D,4D,2 E,4z2 |
[V:1]F/G/=A/B/c/d/e/f/g/=a/b/c'/ b2z4 |
[V:2]e2c2=A2 B2z2e/g/f/e/ |
[V:3]=A,4E2 D2z2B2 |
[V:4]F,4F,2 B,,2z2G2 |
[V:1]z12 |
[V:2]e2d2c/e/d/c/ c2B2A/c/B/A/ |
[V:3]A4G2 F4E2 |
[V:4]F4E2 D4C2 |
[V:1]z2z2D2 E2z4 |
[V:2]A2G2F2 B2zdfe |
[V:3]D4B,2 B,2z4 |
[V:4]B,4A,2 G,2z4 |
[V:1]E2z4 _G2z4 |
[V:2]F2z=Bdc E2zD/E/D/E/_G/E/ |
[V:3]C2z4 C2z4 |
[V:4]A,,2z4 =A,,2z4 |
[V:1]A,4>G,4 z2B2 |
[V:2]B,2C2D2 E2z4 |
[V:3]F,4>G,4 z4 |
[V:4]B,,4>E,,4 z4 |
[V:1]e4_g2 b4=a/b/_c'/b/ |
[V:2]z_GGGzG zGGGzG |
[V:3]zB,B,B,zB, zB,B,B,zB, |
[V:4]E,4E,2 E,4E,2 |
[V:1]b2d2d2 d2z2B2 |
[V:2]zAAAzA zAAAzA |
[V:3]zB,B,B,zB, zB,B,B,zB, |
[V:4]F,4F,2 F,4F,2 |
[V:1]f4a2 _c'4b/a/_g/f/ |
[V:2]zAAAzA zAAAzA |
[V:3]zB,B,B,zB, zFFFzB, |
[V:4]D,4D,2 D,4D,2 |
[V:1]_g2b2b2 b2z2e'2 |
[V:2]z_GGGzG zGGGz/E/B/E/ |
[V:3]zB,B,B,zB, zB,B,B,zB, |
[V:4]E,4E,2 E,4_G,2 |
[V:1]d'2b2e'2 d'2b2e'2 |
[V:2]z/D/F/D/B/D/F/D/z/E/B/E/ z/D/F/D/B/D/F/D/z/E/B/E/ |
[V:3]zB,B,B,zB, zB,B,B,zB, |
[V:4]A,4_G,2 A,4G,2 |
[V:1]_g'2e'2=a2 b2z2b/_a/b/_c'/ |
[V:2]z/E/=A/E/z/E/A/E/z/E/A/E/ D2B2z2 |
[V:3]z=A,A,A,zE D2B,2z2 |
[V:4]_C,2_C2C2 B,2B,,2z2 |
[V:1]_d'2b2_g2 f>gf/g/a/g/b/a/_c'/b/ |
[V:2]z_DDDzD zDDDzD |
[V:3]zB,B,B,zB, z_CCCzC |
[V:4]_G,4G,2 A,4A,2 |
[V:1]_d'_c'ba_gf2 <g2ab/c'/b/c'/ |
[V:2]zFFFzA z_DDDzD |
[V:3]z_CCCzC zB,B,B,zB, |
[V:4]_D,4D,2 _G,4G,2 |
[V:1]b2d2b/_c'/b/c'/ b2e2b/c'/b/c'/ |
[V:2]zDDDzD zEEEzE |
[V:3]zA,A,A,zA, z_G,G,G,zG, |
[V:4]F,4F,2 E,4E,2 |
[V:1]_d'2b2g2 a3d'/_c'/b/a/_g/f/ |
[V:2]z[EG,][G,E][G,E]z[EG,] z[EA,][A,E][EA,]zA |
[V:3]zB,B,B,zB, zA,A,A,zA, |
[V:4]_D,4D,2 _C,4A,,2 |
[V:1]e2>f2d2 e2z2B,2 |
[V:2]z_GGGzF E2z2z2 |
[V:3]zB,B,B,zA, _G,2z4 |
[V:4]B,,4B,,2 E,2E,,2z2 |
[V:1]E4G2 B4=A/B/c/B/ |
[V:2][E4G,4][B,2G2] [B,4G4][G2B,2] |
[V:3]E,4E2 E4E2 |
[V:4]z/E,/D,/E,/G,/E,/D,/E,/B,,/E,/G,,/B,,/ E,,/E,/F,/G,/A,/B,/C/D/EE |
[V:1]B2D2D2 D2z2B,2 |
[V:2]A2F2F2 F2z4 |
[V:3]D2B,2B,2 B,2z4 |
[V:4]F2A2A2 A2z4 |
[V:1]F4A2 c4B/A/G/F/ |
[V:2]D4F2 A4F2 |
[V:3]B,4F2 D4B,2 |
[V:4]B,,/B,/=A,/B,/D/B,/A,/B,/F,/B,/D,/F,/ B,,/C,/D,/E,/F,/G,/_A,/B,/CD |
[V:1]G2B2B2 B2z2e2 |
[V:2]G2E2B,2 G,2z2B,2 |
[V:3]E,2E,2E,2 E,2z4 |
[V:4]E2G2G2 G2z2G,,/B,,/G,,/B,,/ |
[V:1]d2B2e2 A2F2G2 |
[V:2]B,12 |
[V:3]F4E2 F4E2 |
[V:4]A,,/B,,/A,,/B,,/A,,/B,,/A,,/B,,/G,,/B,,/G,,/B,,/ D,,/B,,/D,,/B,,/D,,/B,,/D,,/B,,/E,,/B,,/E,,/B,,/ |
[V:1]=E/F/G/F/A/G/B/A/=B/c/A/F/ _E2D2f2 |
[V:2]C6 B,4z2 |
[V:3]C4A,2 G,2F,2z2 |
[V:4]A,,6 B,,4z2 |
[V:1]A4AG/A/ G2E2g2 |
[V:2]D4F2 B,2z4 |
[V:3]F4D2 E2z4 |
[V:4]B,,/=A,,/B,,/C,/D,/E,/F,/G,/A,/B,/C/D/ E2z4 |
[V:1]e2c2=A2 B2z2e/b/g/e/ |
[V:2]G2E2C2 D2z2B2 |
[V:3]C,4F,2 F,2z2G2 |
[V:4]z/C,,/D,,/E,,/F,,/G,,/=A,,/B,,/C,/D,/E,/F,/ D,2B,,2z2 |
[V:1]edddc/g/e/c/ c=B_BBA/e/c/A/ |
[V:2]A4G2 F4E2 |
[V:3]F4E2 D4C2 |
[V:4]z8 z2C,2 |
[V:1]AGGFF/A/G/F/ B2zd/e/d/e/d/e/ |
[V:2]D4D2 E2z4 |
[V:3]B,4B,2 B,2z4 |
[V:4]B,,4A,,2 G,,2z4 |
[V:1]F2z=B/c/B/c/B/c/ E2zF/_G/F/G/F/G/ |
[V:2]E2z4 _G2zF/G/F/G/F/G/ |
[V:3]C2z4 C2zF/_G/F/G/F/G/ |
[V:4]A,,2z4 =A,,2zF,/_G,/F,/G,/F,/G,/ |
[V:1]B,2C2D2 E2z2b2 |
[V:2]A,4>G,4 z2e/g/f/e/ |
[V:3]B,2A,2F,2 E,2z2B2 |
[V:4]B,,4>E,,4 z2G2 |
[V:1]b8- b2b/c'/d'/e'/ |
[V:2]e2d2f/a/g/f/ f2g2B2 |
[V:3]B4d/f/e/d/ d2e2B2 |
[V:4]F4A2 G4G2 |
[V:1]e'2d'e'f'g' a'2z2g'2 |
[V:2]A2>G2FE D2z2B2 |
[V:3]B2>B2BB B2z2E2 |
[V:4]F2>E2DC B,2z2E,2 |
[V:1]f'2z2e'2 d'2z2b2 |
[V:2]c2z2c2 B2z2B2 |
[V:3]A2z2F4 z2D2 |
[V:4]A,2z2=A,2 B,2z2B,,2 |
[V:1]b4a2 a4g2 |
[V:2]c6 B6 |
[V:3]=E/G/F/E/c/G/F/E/F/A/F/_E/ D/F/E/D/B/F/E/D/E/G/E/D/ |
[V:4]B,,12 |
[V:1]g4f2 f4e2 |
[V:2]A6 G6 |
[V:3]C/E/D/C/A/E/D/C/D/F/E/D/ C/D/E/D/E/F/G/F/E/D/C/B,/ |
[V:4]B,,12 |
[V:1]e/d/f/e/g/f/e/d/c/B/=A/c/ e/d/c/B/A/G/F/E/D/C/B,/=A,/ |
[V:2][E12C12] |
[V:3]=A,12 |
[V:4]B,,12 |
[V:1]B,/=A,/C/B,/D/C/E/D/F/E/G/F/ A/B/c/B/A/B/G/A/F/G/E/F/ |
[V:2]B,/=A,/C/B,/D/C/E/D/F/E/G/F/ A/B/c/B/A/B/G/A/F/G/E/F/ |
[V:3]B,/=A,/C/B,/D/C/E/D/F/E/G/F/ A/B/c/B/A/B/G/A/F/G/E/F/ |
[V:4]B,,/=A,,/C,/B,,/D,/C,/E,/D,/F,/E,/G,/F,/ A,/B,/C/B,/A,/B,/G,/A,/F,/G,/E,/F,/ |
[V:1]DFABdf a2f2d2 |
[V:2]D2z8 z2 |
[V:3]D2z8 z2 |
[V:4]D,2z8 z2 |
[V:1]_c2A2F2 D4e2 |
[V:2]z6 B,4E2- |
[V:3]z6 F,4B,2 |
[V:4]z6 A,,4G,,2 |
[V:1]F2z2c2 E2z2_G2 |
[V:2]E2z4 _G2z4 |
[V:3]C2z4 C2z4 |
[V:4]A,,2z4 =A,,2z4 |
[V:1]B,2C2D2 E2zd/e/ed/c/ |
[V:2]A,4>G,4 z4 |
[V:3]F,4>G,4 z4 |
[V:4]B,,4>E,,4 z4 |
[V:1]B4-B/c/B/A/ G2zd/e/ed/c/ |
[V:2]B,2C2D2 E2z4 |
[V:3]D,2E,2F,2 G,2z4 |
[V:4]B,,4>E,4 z4 |
[V:1]B4B/A/G/F/ E2z2G2 |
[V:2]B,2C2D2 E2z2B,2 |
[V:3]D,2E,2F,2 G,2z2B,2 |
[V:4]B,,4>E,4 z2E,,/D,,/E,,/D,,/ |
[V:1]E2E2E2 E2z4 |]
[V:2]G,2G,2G,2 G,2z4 |]
[V:3]B,2B,2B,2 B,2z4 |]
[V:4]E,,2E,,2E,,2 E,,2z4 |]

